icons/1_Primary/Bitwarden.svg

<svg width="1024" height="1024" viewBox="0 0 1024 1024" fill="none" xmlns="http://www.w3.org/2000/svg">
<g clip-path="url(#clip0_2_1677)">
<path d="M512 1024C794.77 1024 1024 794.77 1024 512C1024 229.23 794.77 0 512 0C229.23 0 0 229.23 0 512C0 794.77 229.23 1024 512 1024Z" fill="#9ABEFF"/>
<path d="M661.219 559.32V346.14H511.999V724.86C536.987 711.811 560.75 696.54 582.999 679.23C635.146 638.37 661.219 598.4 661.219 559.32ZM725.219 303.51V559.32C725.127 578.792 721.319 598.067 713.999 616.11C707.083 633.949 697.782 650.769 686.349 666.11C674.605 681.467 661.444 695.686 647.039 708.58C633.684 720.841 619.613 732.298 604.899 742.89C592.019 751.99 578.586 760.594 564.599 768.7C550.613 776.807 540.676 782.304 534.789 785.19C528.903 788.077 524.183 790.297 520.629 791.85C517.932 793.166 514.97 793.849 511.969 793.849C508.968 793.849 506.007 793.166 503.309 791.85C499.756 790.297 495.036 788.077 489.149 785.19C483.263 782.304 473.326 776.807 459.339 768.7C445.339 760.594 431.906 751.99 419.039 742.89C404.325 732.299 390.254 720.842 376.899 708.58C362.496 695.685 349.335 681.466 337.589 666.11C326.156 650.769 316.855 633.95 309.939 616.11C302.64 598.063 298.852 578.788 298.779 559.32V303.51C298.857 297.88 301.128 292.502 305.11 288.521C309.091 284.539 314.469 282.268 320.099 282.19H703.859C709.489 282.268 714.865 284.54 718.845 288.521C722.825 292.503 725.094 297.881 725.169 303.51H725.219Z" fill="white"/>
</g>
<defs>
<clipPath id="clip0_2_1677">
<rect width="1024" height="1024" fill="white"/>
</clipPath>
</defs>
</svg>

<svg xmlns="http://www.w3.org/2000/svg" viewBox="0 0 1024 1024">
   <circle cx="512" cy="512" r="512" style="fill:#175ddc"/>
   <path d="M661.22 559.32V346.14H512v378.72a469.79 469.79 0 0 0 71-45.63q78.22-61.29 78.22-119.91Zm64-255.81v255.81A153 153 0 0 1 714 616.11a211.83 211.83 0 0 1-27.65 50 308.57 308.57 0 0 1-39.31 42.47 457.88 457.88 0 0 1-42.14 34.31q-19.32 13.65-40.3 25.81t-29.81 16.49q-8.83 4.33-14.16 6.66a19.76 19.76 0 0 1-17.32 0q-5.33-2.33-14.16-6.66t-29.81-16.49q-21-12.16-40.3-25.81a457.59 457.59 0 0 1-42.14-34.31 308.9 308.9 0 0 1-39.31-42.47 211.78 211.78 0 0 1-27.65-50 153 153 0 0 1-11.16-56.79V303.51a21.62 21.62 0 0 1 21.32-21.32h383.76a21.61 21.61 0 0 1 21.31 21.32Z" style="fill:#fff"/>
</svg>
